X:1
T:Veni redemptor gentium III
T:André Vierendeels
T:ad voces aequales
T:(20/02/18)
T:Early melody
T:Veni redemptor gentium III
T:©
T:©
C:André Vierendeels
Z:©
%%score [ 1 2 3 4 ]
L:1/8
Q:1/4=120
M:2/2
K:Bb
V:1 treble-8 nm="Tenor 1" snm="T 1"
V:2 treble-8 nm="Tenor 2" snm="T 2"
V:3 treble-8 nm="Tenor 3" snm="T 3"
V:4 bass nm="Bass" snm="B"
V:1
 z4 B2 d2 | f4 d4 | d4 g4 | f4 e4 | !fermata!d4 e4 | d4 c4 | d2 e2 f4 | e4 d4 | !fermata!c4 c4 | %9
w: Ve- *|ni re-|dem- ptor|gen- ti-|um, o-|sten- de|par- * tum|Vir- gi-|nis: mi-|
 c4 c4 | f4 f4 | g4 f2 =e2 | !fermata!f4 f4 | f4 d4 | e4 d4 | c4 c4 | !fermata!B8 |] %17
w: re- tur|o- mne|sae- cu- *|lum, ta-|lis de-|cet par-|tus De-|um.|
V:2
 z4 F4 | c4 B4 | F4 B4 | d4 c2 B2 | !fermata!B4 B4 | B4 G4 | B4 A4 | c4 B4 | !fermata!A4 G4 | %9
w: Ve-|ni re-|dem- ptor|gen- ti- *|um, o-|sten- fe|par- tum|Vir- gi-|nis: mi-|
 A4 G4 | A4 B4 | B4 G4 | !fermata!B4 A4 | d4 A4 | c4 B2 G2- | G2 A2 B2 A2 | !fermata!F8 |] %17
w: re- tur|o- mne|sae- cu-|lum, ta-|lis de-|cet par- tus|_ _ De- *|um.|
V:3
 z4 D4 | F4 D4 | D4 E4 | F4 G4 | !fermata!F4 G4 | F4 E4 | F4 C4 | G4 G2 F2 | !fermata!F4 E4 | %9
w: Ve-|ni re-|dem- ptor|gen- ti-|um, o-|sten- de|par- tum|Vir- gi- *|nis: mi-|
 F4 E2 D2 | CDEF D4 | D4 C4 | !fermata!F4 C4 | D2 E2 F4 | G2 FE D4 | E4 F4 | !fermata!D8 |] %17
w: re- tur _|o- * * * mne|sae- cu-|lum, ta-|lis _ de-|cet _ _ par-|tus De-|um.|
V:4
 z4 B,,4 | A,,4 G,,2 A,,2 | B,,4 E,4 | B,,4 C,2 E,2 | !fermata!B,,4 E,4 | B,,4 C,4 | B,,4 F,,4 | %7
w: Ve-|ni re- *|dem- ptor|gen- ti- *|um, o-|sten- de|par- tum|
 C,4 G,,2 B,,2 | !fermata!F,,4 C,4 | F,,4 C,4 | F,,4 B,,4 | G,,4 C,4 | !fermata!B,,4 F,,4 | %13
w: Vir- gi- *|nis: mi-|re- tur|o- mne|sae- cu-|lum, ta-|
 B,,4 D,4 | C,2 A,,C, G,,3 A,, | C,4 F,,4 | !fermata!B,,8 |] %17
w: lis de-|cet _ _ par- *|tus De-|um|

